X: 33200
T: Prosper's
R: jig
M: 6/8
K: Dmajor
|:F2G A2A|ABA A2F|G2A B2B|BdB B2A|
F2G A2A|AdB A2G|F2G ABA|ABc d3:|
|:d2e f2f|fag f2e|d2e f2f|fag f2e|
d2c B2B|BdB B2A|F2G ABA|ABc d3:|

